Assets/Icons/expression/exclamation-circle.svg

<svg enable-background="new 0 0 60 60" viewBox="0 0 60 60" xmlns="http://www.w3.org/2000/svg"><path d="m30 1.5c-15.71 0-28.5 12.79-28.5 28.5s12.79 28.5 28.5 28.5 28.5-12.79 28.5-28.5-12.79-28.5-28.5-28.5zm0 54c-14.06 0-25.5-11.44-25.5-25.5s11.44-25.5 25.5-25.5 25.5 11.44 25.5 25.5-11.44 25.5-25.5 25.5z"/><path d="m29.96 37.71c-.82 0-1.48.26-2 .79s-.77 1.21-.77 2.05c0 .82.26 1.48.77 2s1.18.77 2 .77c.84 0 1.52-.25 2.05-.76.53-.5.79-1.18.79-2.02s-.26-1.52-.79-2.05c-.52-.52-1.21-.78-2.05-.78z"/><path d="m27.88 34.65c0 .19.06.34.18.45s.28.16.47.16h2.95c.19 0 .35-.05.47-.16s.18-.26.18-.45c.17-5.21.29-9.14.38-11.79.08-2.65.13-4.01.13-4.09 0-.22-.05-.37-.14-.47-.1-.1-.24-.14-.43-.14h-4.1c-.19 0-.34.05-.43.14-.1.1-.14.25-.14.47 0 .07.04 1.43.13 4.09.05 2.65.18 6.58.35 11.79z"/></svg>

<?xml version="1.0" encoding="utf-8"?>
<!-- Generator: Adobe Illustrator 21.1.0, SVG Export Plug-In . SVG Version: 6.00 Build 0)  -->
<svg version="1.1" id="eps" xmlns="http://www.w3.org/2000/svg" xmlns:xlink="http://www.w3.org/1999/xlink" x="0px" y="0px"
	 viewBox="0 0 60 60" style="enable-background:new 0 0 60 60;" xml:space="preserve">
<g>
	<path d="M30,1.5C14.29,1.5,1.5,14.29,1.5,30S14.29,58.5,30,58.5S58.5,45.71,58.5,30S45.71,1.5,30,1.5z M30,55.5
		C15.94,55.5,4.5,44.06,4.5,30S15.94,4.5,30,4.5S55.5,15.94,55.5,30S44.06,55.5,30,55.5z"/>
	<path d="M29.96,37.71c-0.82,0-1.48,0.26-2,0.79c-0.52,0.53-0.77,1.21-0.77,2.05c0,0.82,0.26,1.48,0.77,2s1.18,0.77,2,0.77
		c0.84,0,1.52-0.25,2.05-0.76c0.53-0.5,0.79-1.18,0.79-2.02s-0.26-1.52-0.79-2.05C31.49,37.97,30.8,37.71,29.96,37.71z"/>
	<path d="M27.88,34.65c0,0.19,0.06,0.34,0.18,0.45s0.28,0.16,0.47,0.16h2.95c0.19,0,0.35-0.05,0.47-0.16
		c0.12-0.11,0.18-0.26,0.18-0.45c0.17-5.21,0.29-9.14,0.38-11.79c0.08-2.65,0.13-4.01,0.13-4.09c0-0.22-0.05-0.37-0.14-0.47
		c-0.1-0.1-0.24-0.14-0.43-0.14h-4.1c-0.19,0-0.34,0.05-0.43,0.14c-0.1,0.1-0.14,0.25-0.14,0.47c0,0.07,0.04,1.43,0.13,4.09
		C27.58,25.51,27.71,29.44,27.88,34.65z"/>
</g>
</svg>
